!!!COM:      Bach, Johann Sebastian
!!!CDT:      1685/03/31/-1750/07/28/
!!!OPR@@GER: Das wohltemperirte Clavier
!!!OVM@@GER: Band II
!!!OPR@ENG:  Well-Tempered Clavier
!!!OVM@ENG:  Book II
!!!OTL:      Prelude
!!!OKY:      A minor
!!!ONM:      no. 20
!!!SCT:      BWV 889
!!!OMV:      1
**kern	**kern	**kern
*>[A,A,B,B]	*>[A,A,B,B]	*>[A,A,B,B]
*>norep[A,B]	*>norep[A,B]	*>norep[A,B]
*>A	*>A	*>A
*clefF4	*	*clefG2
*M4/4	*	*M4/4
*met(c)	*	*met(c)
*MM46	*MM46	*MM46
=1-	=1-	=1-
8AA	1ryy	32r
.	.	32cc
.	.	32dd
.	.	32ee
8A	.	16ff
.	.	16cc
8G#	.	16b
.	.	16dd#
8Gn	.	16ee
.	.	16b-
8F#	.	16a
.	.	16cc#
8Fn	.	16ddn
.	.	[16g#
8E	.	16g#]
.	.	8a
[8D	.	.
.	.	16bn
=2	=2	=2
32D]	1ryy	8e
32C	.	.
32D	.	.
32E	.	.
16F	.	8a
16C	.	.
16BB	.	8g#
16D#	.	.
16E	.	8gn
16BB-	.	.
16AA	.	8f#
16C#	.	.
16Dn	.	8fn
[16GG#	.	.
16GG#]	.	8e
8AA	.	.
.	.	[8d
16BBn	.	.
=3	=3	=3
8EE	1ryy	16d]
.	.	32c
.	.	32B
8AA	.	16c
.	.	[16a
8BB	.	16a]
.	.	16g#
8C#	.	16ee
.	.	[16gn
8D	.	16g]
.	.	32f
.	.	32e
8BB	.	16d#
.	.	[16b
8C#X	.	16b]
.	.	16a#
8D#	.	16ff#
.	.	[16an
=4	=4	=4
8E	1ryy	32a]
.	.	32g
.	.	32a
.	.	32b
8e	.	16cc
.	.	16g
8d#	.	16f#
.	.	16a#
8dn	.	16b
.	.	16fn
8c#	.	16e
.	.	16g#
8cn	.	16an
.	.	[16d#
8B	.	16d#]
.	.	8e
[8A	.	.
.	.	16f#
=5	=5	=5
32A]	1ryy	8B
32G	.	.
32A	.	.
32B	.	.
16c	.	8ee
16G	.	.
16F#	.	8dd#
16A#	.	.
16B	.	8ddn
16Fn	.	.
16E	.	8cc#
16G#	.	.
16An	.	8ccn
[16D#	.	.
16D#]	.	8b
8E	.	.
.	.	[8a
16F#	.	.
=6	=6	=6
8BB	1ryy	16a]
.	.	32g
.	.	32f#
8E	.	16g
.	.	[16ee
8F#	.	16ee]
.	.	16dd#
8G#	.	16bb
.	.	[16ddn
16A	.	16dd]
16AA	.	32cc
.	.	32b
[8A	.	16cc
.	.	16a
16A]	.	8b
16G#X	.	.
16e	.	8cc#
[16Gn	.	.
=7	=7	=7
16G]	1ryy	16dd
32F#	.	16d
32E	.	.
16F#	.	[8dd
16D	.	.
8E	.	16dd]
.	.	16cc#
8F#	.	16aa
.	.	[16ccn
16G	.	16cc]
16GG	.	32b
.	.	32a
[8G	.	16b
.	.	16g
16G]	.	8a
16F#X	.	.
16d	.	8b
[16Fn	.	.
=8	=8	=8
32F]	1ryy	8cc
32E	.	.
32F	.	.
32G	.	.
16A	.	8ccc
16E	.	.
16D#	.	8bb
16F#	.	.
16G	.	8bb-
16Dn	.	.
16C#	.	8aa
16E	.	.
16Fn	.	8aa-
[16Cn	.	.
16C]	.	8gg
8BB	.	.
.	.	[8ff
32C	.	.
32D	.	.
=9	=9	=9
8GG	1ryy	32ff]
.	.	32b
.	.	32cc
.	.	32dd
8G	.	16ee
.	.	16b
8F#	.	16a#
.	.	16cc#
8Fn	.	16dd
.	.	16an
8E	.	16g#
.	.	16b
8E-	.	16ccn
.	.	[16gn
8D	.	16g]
.	.	8f#
[8C	.	.
.	.	32g
.	.	32a
=10	=10	=10
16C]	1ryy	8d
32BB	.	.
32AA	.	.
16BB	.	8g
[16G	.	.
16G]	.	8a
16F#	.	.
16d	.	8b
[16Fn	.	.
16F]	.	8cc
32E	.	.
32D	.	.
16C#	.	8a
[16A	.	.
16A]	.	8b
16G#	.	.
16e	.	8cc#
[16Gn	.	.
=11	=11	=11
32Gn]	1ryy	8dd
32F#	.	.
32G	.	.
32A	.	.
16B-	.	8d
16Fn	.	.
16E	.	8c#
16G#	.	.
16A	.	8cn
16E-	.	.
16D	.	8Bn
16F#	.	.
16Gn	.	8B-
[16C#	.	.
16C#]	.	8A
8D	.	.
.	.	[8G
16En	.	.
=12	=12	=12
8AA	1ryy	16G]
.	.	32F
.	.	32E
8D	.	16F
.	.	[16d
8E	.	16d]
.	.	16c#
8F#	.	16a
.	.	[16cn
8G	.	16c]
.	.	32B
.	.	32A
8E	.	16G#
.	.	[16e
8F#X	.	16e]
.	.	16d#
8G#	.	16b
.	.	[16dn
=13	=13	=13
16A	1ryy	32dn]
.	.	32c
16AA	.	32d
.	.	32e
8A	.	16f
.	.	16c
8G#	.	16B
.	.	16d#
8Gn	.	16e
.	.	16B-
8F#	.	16A
.	.	16c#
8Fn	.	16dn
.	.	[16G#
8E	.	16G#]
.	.	8A
[8D	.	.
.	.	16Bn
=14	=14	=14
16D]	1ryy	8E
32C	.	.
32BB	.	.
16C	.	8e
[16E	.	.
16E]	.	8f#
16D#	.	.
16B	.	8g#
[16Dn	.	.
16D]	.	16a
32C#	.	16A
32BB	.	.
16C#	.	[8a
16AA	.	.
8BB	.	16a]
.	.	16g#X
8C#	.	16ee
.	.	[16gn
=15	=15	=15
16D	1ryy	16g]
16DD	.	32f#
.	.	32e
[8D	.	16f#
.	.	16d
16D]	.	8e
16C#	.	.
16A	.	8f#
[16Cn	.	.
16C]	.	16g
32BB	.	16G
32AA	.	.
16BB	.	[8g
16GG	.	.
8AA	.	16g]
.	.	16f#X
8BB	.	16dd
.	.	[16fn
=16	=16	=16
*	*staff:2	*
*	*clefG2	*
8.C	2r	16fn]
.	.	32e
.	.	32d
.	.	16e
32BB	.	[16ee
32AA	.	.
4FT	.	16ee]
.	.	32ff
.	.	32ee
.	.	32dd
.	.	32cc
.	.	32b
.	.	32a
32E	32r	2g#
32e	32ryy	.
32d	16ryy	.
32c	.	.
32B	8ryy	.
32A	.	.
32G#	.	.
32F#	.	.
8E	4ryy	.
8EE	.	.
=17:||:	=17:||:	=17:||:
*>B	*>B	*>B
32r	1ryy	8ee
32c	.	.
32B	.	.
32A	.	.
16G#	.	8e
16c#	.	.
16d	.	8f
16B-	.	.
16A	.	8f#
16d#	.	.
16e	.	8g
16cn	.	.
16Bn	.	8g#
[16f	.	.
16f]	.	8a
8e	.	.
.	.	8b
16dn	.	.
=18	=18	=18
8a	1ryy	32cc
.	.	32ff
.	.	32ee
.	.	32dd
8A	.	16cc#
.	.	16ff#
8B-	.	16gg
.	.	16ee-
8Bn	.	16dd
.	.	16gg#
8c	.	16aa
.	.	16ffn
8c#	.	16een
.	.	[16bb-
8d	.	16bb-]
.	.	8aa
8e	.	.
.	.	16gg#X
=19	=19	=19
8f	1ryy	32aa
.	.	32ggn
.	.	32ff
.	.	32ee
8d	.	16ff
.	.	16b-
8c	.	16a
.	.	16ee
8B	.	16dd
.	.	[16g#
8A	.	32g#]
.	.	32dd
.	.	32cc
.	.	32bn
8c	.	16a
.	.	16ee
8B	.	16dd
.	.	16gn
8A	.	16f#
.	.	16cc
=20	=20	=20
32G	1ryy	8b
32B	.	.
32c	.	.
32d	.	.
16e	.	8gg
16B-	.	.
16A	.	8ff
16d	.	.
16c#	.	8ee
[16G	.	.
32G]	.	8dd
32g	.	.
32f	.	.
32e	.	.
16d	.	8ff
16g#	.	.
16a	.	8ee
16cn	.	.
16Bn	.	[8dd
16f	.	.
=21	=21	=21
32e	1ryy	8dd]
32d	.	.
32c	.	.
32B	.	.
16A	.	16cc
16G#	.	16b
16A	.	8cc
16F	.	.
16E	.	8cc#
16A#	.	.
16B	.	8dd
16Gn	.	.
16F#	.	8dd#
[16c	.	.
16c]	.	8ee
8B	.	.
.	.	8ff#
16An	.	.
=22	=22	=22
8e	1ryy	32gg
.	.	32ffn
.	.	32ee
.	.	32dd
8E	.	16cc#
.	.	16gg#
8F	.	16aa
.	.	16ee-
8F#	.	16dd
.	.	16aa#
8G	.	16bb
.	.	16ffn
8G#	.	16een
.	.	[16dd
8A	.	16dd]
.	.	8ccn
8B	.	.
.	.	[16b
=23	=23	=23
8c	1ryy	16b]
.	.	32a
.	.	32b
8A	.	16cc
.	.	16d#
8G	.	16e
.	.	16cc#
8F	.	16ddn
.	.	16f
32E	.	8g
32F	.	.
32G	.	.
32A	.	.
16B-	.	8dd
16F	.	.
16E	.	8cc#X
16A	.	.
16G	.	[8b-
16D	.	.
=24	=24	=24
8C#	1ryy	32b-]
.	.	32a
.	.	32g
.	.	32a
8G	.	16b-X
.	.	16c#
8F	.	16d
.	.	16bn
8E	.	16ccn
.	.	16e
32D	.	8f#
32E	.	.
32F#	.	.
32G	.	.
16A	.	8cc
16E-	.	.
16D	.	8b
16G	.	.
16Fn	.	[8a-
16Cn	.	.
=25	=25	=25
8BB	1ryy	32a-]
.	.	32g
.	.	32an
.	.	32b
8E	.	16cc
.	.	16g
8D#	.	16f#
.	.	16a#
8Dn	.	16b
.	.	16fn
8C#	.	16e
.	.	16g#
8Cn	.	16an
.	.	[16d#
8BB	.	16d#]
.	.	8e
[8AA	.	.
.	.	16fn
=26	=26	=26
32AA]	1ryy	8B
32C	.	.
32BB	.	.
32AA	.	.
16GG#	.	8ee
16C#	.	.
16D	.	8ff
16BB-	.	.
16AA	.	8ff#
16D#	.	.
16E	.	8gg
16Cn	.	.
16BBn	.	8gg#
[16F	.	.
16F]	.	8aa
8E	.	.
.	.	[8bb
16Dn	.	.
=27	=27	=27
8C	1ryy	16bb]
.	.	32aa
.	.	32bb
8E	.	16ccc
.	.	[16ee
8F#	.	16ee]
.	.	16dd#
8G#	.	16bb
.	.	[16ddn
8A	.	32dd]
.	.	32cc
.	.	32dd
.	.	32ee
8AA	.	16ff
.	.	[16a
8BB	.	16a]
.	.	16g#
8C#	.	16ee
.	.	[16gn
=28	=28	=28
8D	1ryy	32g]
.	.	32f
.	.	32g
.	.	32a
8DD	.	16b-
.	.	[16d
8EE	.	16d]
.	.	16c#
8E	.	16a
.	.	[16cn
8D#	.	16c]
.	.	16Bn
8Dn	.	16g#
.	.	[16B
8C#	.	16B]
.	.	16A
8Cn	.	16fn
.	.	[16A
=29	=29	=29
8BB	1ryy	16A]
.	.	32G#
.	.	32F#
8BB	.	16G#
.	.	[16d
8AA	.	32d]
.	.	32c
.	.	32B
.	.	32A
8AA	.	16B
.	.	[16fn
8GG#	.	32f]
.	.	32e
.	.	32d
.	.	32c#
8GG#	.	16d
.	.	[16b
8EE	.	32b]
.	.	32a
.	.	32g#X
.	.	32f#
8EE	.	16g#
.	.	[16dd
=30	=30	=30
[8AA	1ryy	16dd]
.	.	32cc
.	.	32b
32AA]	.	16cc
32D	.	.
32E	.	16a
32F#	.	.
16G	.	8b-
16E	.	.
16D#	.	8bn
16G#	.	.
16A	.	8cc
16Fn	.	.
16E	.	8cc#
[16B-	.	.
16B-]	.	8dd
8A	.	.
.	.	[8ee
16Gn	.	.
=31	=31	=31
32F	1ryy	32ee]
32E	.	32cc#
32F	.	32dd
32G	.	32ee
8A	.	16ff
.	.	16ccn
8G#	.	16b
.	.	16dd#
8Gn	.	16ee
.	.	16b-
8F#	.	16a
.	.	16cc#
8Fn	.	16ddn
.	.	[16g#
8E	.	16g#]
.	.	8a
[8D	.	.
.	.	16bn
=32	=32	=32
16D]	1ryy	16e
32C	.	[16ee
32BB	.	.
16C	.	32ee]
.	.	32dd
16AA	.	32cc
.	.	32b
8Em	.	32dd
.	.	32cc
.	.	32b
.	.	32a
8EE	.	32cc
.	.	32b
.	.	32a
.	.	32g#
16AA	.	2a
32BB	.	.
32C	.	.
32D	.	.
32E	.	.
32F#	.	.
32G#	.	.
8A	.	.
8AA	.	.
==:|	==:|	==:|
*-	*-	*-
!!!AFR:  prelude
!!!EFL:  87/96
!!!END:  1994/02/15/
!!!VID:  881757761 Bach, BWV 889-01
!!!AST:  Baroque
!!!OCY:  Deutschland
!!!ODT:  1742///
!!!PDT:  1801///
!!!EED:  Walter Hewlett
!!!ENC:  Walter Hewlett
!!!YOR:  Bach Gesellschaft Edition xiv
!!!AFT:  enhanced SCORE
!!!RDT:  2011/10/07/ by Andreas Kornstaedt using massScr2hmd
!!!SCA1: Thematisch-systematisches Verzeichnis der musikalischen Werke 
!!!SCA2: Johann Sebastian Bach: Bach-Werke-Verzeichnis (Schmieder)
!!!YEC1: Copyright 1994, 2000 Center for Computer Assisted Research 
!!!YEC2: in the Humanities
!!!YEM1: Rights to all derivative editions reserved.
!!!YEM2: Refer to licensing agreement for further details.
!!!YEN:  United States of America
!!!ref:  @{OTL}, @{SCT}
!!muse2ps: T^@{OTL} @{ONM} in @{OKY}^C^J.S. Bach\n@{SCT}-@{OMV}^
!!muse2ps: u^@{OPR@ENG}, @{OVM@ENG}^j
